logo/bem-2.svg

<?xml version="1.0" encoding="UTF-8" standalone="no" ?>
<svg width="256px" height="220px" viewBox="0 0 256 220" version="1.1" xmlns="http://www.w3.org/2000/svg" xmlns:xlink="http://www.w3.org/1999/xlink" preserveAspectRatio="xMidYMid">
    <g>
        <path d="M146.334886,187.820408 L255.168179,187.820408 L255.168179,219.167347 L146.334886,219.167347 L146.334886,187.820408 Z" fill="#010101"></path>
        <path d="M130.075454,187.820408 L130.075454,130.873469 L78.9369188,130.873469 L78.9369188,187.820408 L130.075454,187.820408" fill="#F7B334"></path>
        <path d="M108.046547,62.1714286 L66.0867227,62.1714286 L34.0923569,0 L0.2622489,0 L0.2622489,187.820408 L79.1991677,187.820408 L79.1991677,130.873469 L146.072637,130.873469 L146.072637,100.04898 C146.072637,78.6285714 130.599952,62.1714286 108.046547,62.1714286 L108.046547,62.1714286 Z M120.634494,113.110204 L109.095542,113.110204 L95.9830972,110.236735 L95.9830972,107.363265 L120.634494,107.363265 L120.634494,113.110204 L120.634494,113.110204 Z" fill="#010101"></path>
    </g>
</svg>

<svg viewBox="0 0 256 220" xmlns="http://www.w3.org/2000/svg"><path fill="#010101" d="M146.33 187.82h108.83v31.34H146.32v-31.35Z"/><path fill="#F7B334" d="M130.07 187.82v-56.95H78.93v56.94h51.13"/><path fill="#010101" d="M108.04 62.17H66.08l-32-62.18H.24v187.82h78.93v-56.95h66.87v-30.83c0-21.43-15.48-37.88-38.03-37.88v0Zm12.58 50.93h-11.54l-13.12-2.88v-2.88h24.65v5.74 0Z"/></svg>
